X:54
T: UND DIE WURZBURGER GLOECKLI
N: E1052
O: Europa, Mitteleuropa, Deutschland, Bayern
R: Tanz - Lied; Liebe
M: 3/4
L: 1/16
K: D
F,2G,2 | A,4F,4F,4 | F,4E,4
E,2F,2 | G,6F,2E,4 | G,4F,4
F,2G,2 | A,4F,4F,4 | F,4E,4
E,2B,2 | B,4A,4C4 | D,8z2
A,2 | A,2G2E6A,2 | A,2F2D6
A,2 | A,2C2E2A,2C2E2 | D2A,2D2F2A4
A,2G2E6A,2 | A,2F2D6
A,2 | A,2B,2C2D2F3E | D4z4

